client/public/img/game/shared/particles/window2_particle.svg

<?xml version="1.0" encoding="UTF-8" standalone="no"?>
<!-- Created with Inkscape (http://www.inkscape.org/) -->

<svg
   width="35"
   height="35"
   viewBox="0 0 9.2604165 9.2604169"
   version="1.1"
   id="svg5"
   xmlns="http://www.w3.org/2000/svg"
   xmlns:svg="http://www.w3.org/2000/svg">
  <defs
     id="defs2" />
  <g
     id="layer1">
    <path
       id="rect846"
       style="fill:#0094b2;fill-opacity:0.3019608;stroke:#005666;stroke-width:3.09992;stroke-linecap:round;stroke-linejoin:round;stroke-miterlimit:4;stroke-dasharray:none;stroke-opacity:0.80000001"
       d="M 1.5507812 1.5507812 L 1.5507812 5.3808594 L 9.0234375 19.693359 L 5.2089844 23.998047 L 5.7617188 29.585938 L 1.5507812 32.205078 L 1.5507812 33.449219 L 6.0625 33.449219 L 14.322266 29.949219 L 26.494141 33.449219 L 33.449219 33.449219 L 33.449219 30.212891 C 32.498026 28.689666 31.547225 27.195773 31.458984 27.175781 C 31.277975 27.134767 31.310547 17.994141 31.310547 17.994141 L 33.449219 8.4257812 L 33.449219 1.5507812 L 19.271484 8.2011719 L 1.5507812 1.5507812 z "
       transform="scale(0.26458333)" />
  </g>
</svg>

<svg xmlns="http://www.w3.org/2000/svg" width="35" height="35" viewBox="0 0 9.26 9.26"><path d="M1.55 1.55v3.83l7.473 14.313-3.814 4.305.553 5.588-4.211 2.62v1.243h4.512l8.26-3.5 12.171 3.5h6.955v-3.236c-.951-1.523-1.902-3.017-1.99-3.037-.181-.041-.148-9.182-.148-9.182l2.138-9.568V1.55L19.271 8.2z" style="fill:#0094b2;fill-opacity:.3019608;stroke:#005666;stroke-width:3.09992;stroke-linecap:round;stroke-linejoin:round;stroke-miterlimit:4;stroke-dasharray:none;stroke-opacity:.80000001" transform="scale(.26458)"/></svg>
